resources/haticons/SVG/view_column.svg

<!-- Generated by IcoMoon.io -->
<svg version="1.1" xmlns="http://www.w3.org/2000/svg" width="24" height="24" viewBox="0 0 24 24">
<title>view_column</title>
<path d="M15.984 5.016h5.016v12.984h-5.016v-12.984zM3.984 18v-12.984h5.016v12.984h-5.016zM9.984 18v-12.984h5.016v12.984h-5.016z"></path>
</svg>

<svg xmlns="http://www.w3.org/2000/svg" width="24" height="24"><path d="M15.984 5.016H21V18h-5.016V5.016zM3.984 18V5.016H9V18H3.984zm6 0V5.016H15V18H9.984z"/></svg>
